X: 1
T: THE FAIRY DANCE -- REEL
B: Ryan's Mammoth Collection of Fiddle Tunes
R: reel
M: 2/4
L: 1/16
Z: Contributed 20010522205350 by John Chambers jc:trillian.mit.edu
K: D
vde \
| f2fd f2fd | gfed cdeg | f2fa gfed | cABc d2de \
| f2fd f2fd | gfed cdeg | f2fa gfed | cABc d2 :|
|: fg \
| a2a2 b3f | g2g2 a3g | f2(fa) gfed | cABc defg \
| a2a2 b3f | g2g2 a3g | f2(fa) gfed | cABc d2 :|
